svg/image-twotone.svg

<svg xmlns="http://www.w3.org/2000/svg" width="24" height="24" viewBox="0 0 24 24">
	<g fill="none" stroke="currentColor" stroke-width="2" stroke-linecap="round" stroke-linejoin="round">
		<path d="M3 14v-9h18v14h-18v-5" stroke-dasharray="72" stroke-dashoffset="72">
			<animate attributeName="stroke-dashoffset" values="72;0" dur="0.6s" fill="freeze" />
		</path>
		<path d="M3 16l4 -3l3 2l6 -5l5 4" stroke-width="1" stroke-dasharray="24" stroke-dashoffset="24">
			<animate attributeName="stroke-dashoffset" values="24;0" begin="0.6s" dur="0.4s" fill="freeze" />
		</path>
	</g>
	<g fill="currentColor">
		<circle cx="7.5" cy="9.5" r="1.5" fill-opacity="0">
			<animate attributeName="fill-opacity" values="0;1" begin="1s" dur="0.2s" fill="freeze" />
		</circle>
		<path d="M3 16l4 -3l3 2l6 -5l5 4V19H3Z" fill-opacity="0">
			<animate attributeName="fill-opacity" values="0;0.3" begin="1.3s" dur="0.15s" fill="freeze" />
		</path>
	</g>
</svg>

<svg xmlns="http://www.w3.org/2000/svg" width="24" height="24" viewBox="0 0 24 24">
	<g stroke="currentColor" stroke-linecap="round" stroke-linejoin="round">
		<path d="M3 14V5H21V19H3V14" fill="none" stroke-width="2" stroke-dasharray="66" stroke-dashoffset="66">
			<animate attributeName="stroke-dashoffset" values="66;0" dur="0.6s" fill="freeze" />
		</path>
		<path d="M3 16L7 13L10 15L16 10L21 14V19H3Z" fill="currentColor" fill-opacity="0" stroke-dasharray="52" stroke-dashoffset="52">
			<animate attributeName="stroke-dashoffset" values="52;0" begin="0.6s" dur="0.8s" fill="freeze" />
			<animate attributeName="fill-opacity" values="0;0.3" begin="1s" dur="0.15s" fill="freeze" />
		</path>
	</g>
	<circle cx="7.5" cy="9.5" r="1.5" fill="currentColor" fill-opacity="0">
		<animate attributeName="fill-opacity" values="0;1" begin="1s" dur="0.4s" fill="freeze" />
	</circle>
</svg>
